X:3
T:Blackthorn Stick
Z: id:dc-setdance-3
M:6/8
L:1/8
K:G Major
d|BAG E2G|D2D EGF|G2D GAB|c2c BAG|BdB A2D|!
GAB c2c|BAG Bdd|edc BAG|EGE DB,D|EGF G2D|!
GAB c2c|BAG Bdd|edc BAG|EGE DB,D|EGF G2|]!

